X: 2117
T: Ömrüm Seni Sevmekle...
C: Yesârî Âsım Arsoy
O: Turkey
F: http://compmusic.upf.edu/node/140
N: huzzam--sarki--curcuna--omrum_seni--yesari_asim_arsoy
N: makam= huzzam
N: form= sarki
N: usul= curcuna = 10/8
M: 10/8
L: 1/16
K: C _1/4B _3/4e ^3/4f 
Q: 1/4=126
%%MIDI tuningsystem comma53
d6g4d2 {f}edd6  | z4 e2f4g2 gfg6  | g3f _1/4e2f4g4a2 g2f2  | 
w:  Öm *  *  *  rüm   |  se ni  sev  |  mek *  *  le  ni ha  | 
a18{_b}ag  | g4 {a}g2g2 f2e2 f2g2 e2d2  | \
w:  yet   |  *  *  bu la *  cak  | 
d8-d2c2 B^AB4z2  | d6g4d2 {f}edd6  | 
w:  tır   SAZ  |  Öm *  *  *  rüm   | 
z4 e2f4g2 gfg6  | g3f _1/4e2f4g4a2 g2f2  | \
w:  se ni  sev  |  mek *  *  le  ni ha  | 
a18{_b}ag  | g4 {a}g2g2 f2e2 f2g2 e2d2  | 
w:  yet   |  *  *  bu la *  cak  | 
d8-d2fe ede4d2  | f2ed d2g3ffe ede4ed  | 
w:  tır   SAZ  |  Yal *  *  *  *  *  nız   | 
d4 f2g4{a}g2 f2e2 d4  | e4 f2g2 _1/4e2e2 g2f2 _3/4e2d2  | \
w:  *  se nin  *  aş  |  kın  *  i *  le  *  ru  | 
d8-d2e2 ede4dc  | 
w:  hum   | 
B4 B2B4c4B2 B^AG2  | B8-B2fe ede4d2  | \
w:  *  so la cak  |  tır   SAZ  | 
f2ed d2g3ffe ede4ed  | 
w:  Yal *  *  *  *  *  nız   | 
d4 f2g4{a}g2 f2e2 d4  | e4 f2g2 _1/4e2e2 g2f2 _3/4e2d2  | \
w:  *  se nin  *  aş  |  kın  *  i *  le  *  ru  | 
d8-d2e2 ede4dc  | 
w:  hum   | 
B4 B2B4c4B2 B^AG2  | B8-B2^c4d4z2  | \
w:  *  so la cak  |  tır   SAZ  | 
d4 {e}d2e4d2 {e}d^cB2 B4  | 
w:  Son  *  *  *  dar  | 
B4 ^c2d4_7/8e2 ede4d2  | f6f4.g4f2 e2d2  | \
w:  *  be  i  kal  |  bim  yi ne  is  | 
a14a2 {_b}abag  | g4 {a}g2g2 f2e2 f2g2 e2d2  | 
w:  min   |  *  *  o la *  cak  | 
d8-d2fe ede4d2  | f2ed d2g3ffe ede4ed  | 
w:  tır   SAZ  |  Yal *  *  *  *  *  nız   | 
d4 f2g4{a}g2 f2e2 d4  | e4 f2g2 _1/4e2e2 g2f2 _3/4e2d2  | \
w:  *  se nin  *  aş  |  kın  *  i *  le  *  ru  | 
d8-d2e2 ede4dc  | 
w:  hum   | 
B4 B2B4c4B2 B^AG2  | B8-B2|
w:  *  so la cak  |  tır    | 


